X:2
T:Hunt the Squirrel
C:trad. arr. Robin Garside
Z:ABC version by Jack Campin
M:6/8
L:1/8
Q:3/8=120
K:G
"G"G2d d2e|    d3  B3 |"G" GAB "D"A2G|   "G"GAB "D"A2G |
"G"G2d d2e|    d3  B3 |"G" GAB "D"A2G|[1 "G"G3     D3 :|\
                                      [2 "G"G3     GAB||
"C"c2d edc|"Am"c2d edc|"Am"c2d    e2f|   "C"g3     gfe |
"G"d2B d2B|    d2B d3 |"G" GAB "D"A2G|[1 "G"G3     GAB:|\
                                      [2 "G"G3     D3 |]

